X:12
T:Sheelah na Gig
Z:Jack Campin <http://www.campin.me.uk/>
S:NLS MS 21841 (C.K. Sharpe collection of sheets)
M:9/8
L:1/8
Q:3/8=112
K:D
 FGA      ABc d3 |FGA GB=c B3 :|
 d2d      ded cBA|c2c cde  AFD |\
 ddd      ded cBA|B2B Bcd  AFD:|
[G3E3B,3] BGE BGE|G3  BGE  AFD |\
 G3       BGE BGE|FGA Bcd  AFD:|
